X: 28
T: Untitled Jig
M: 6/8
L: 1/8
G: Hopkinson's Favourite
Q: 1/4=100
R: Jig
K: D
|:A|"D"d3 "G"B3|"D"AFD DFA|"Bm"d3 "A"e3|"Bm"fdB B2d|dfe "G"dcB|"D"AFD DEF|
"Em"E3 "D"F3|"G"DB,B, B,2:||:A|"D"F2A"A"E2A|"D"F2A"A"E2A|"D"F2A"Em"Bcd|
"A"c2A ABc|"Bm"d3 "A"e3|"Bm"fed "F#m"cBA|"G"Bcd "A"A2F|"D"FDD D2:|]
%%newpage
%%textfont * 14
%%begintext justify
%%32 Bar Jigs
%%endtext
